X:110
T:Unknown
C:Tommy Peoples
Z:robin.beech@mcgill.ca
R:jig
M:6/8
L:1/8
K:D
G |: FDB AGE | FAd ffa | g2b ege | cec ABG | FDB AGE | FAd fga |
bge cAF | GEC D2G :: F2D DDD | FAd fdA | g2e g2e | Bcd ecA |
BBg bge | Adf afd | FAd gec | AGE D3 :: AFA eff | ab^g afd |
BGE A,A,A, | CEA gec | dge f3 | ab^g afd | B2B cec | AGE D3 :|
